X:19
T:Light and Airy
M:6/8
L:1/8
%Q:180
K:G
B|:d3Bd|BGB dgd|Bd3Bd|BA2 Bc2|d
W:. G G G D D7
d3Bd|BGB dgd|Bca cBg|BA2 Bc2|e
W:. G G G7 Am G D7
ga ggd|Bga gb2|aga ggd|BA2 Bc2|e
W:. G Em D G D D7
gb gac'|agb gfa|fgf edc|BA2 Bc2|e:|[A3F3]G2 B,2
W:. G D7 Em D C G D7 D7 G
